public/icons/handshake.svg

<svg width="24" height="25" viewBox="0 0 24 25" fill="none" xmlns="http://www.w3.org/2000/svg">
<g clip-path="url(#clip0_573_334)">
<path d="M17.6723 2.08777C17.5404 1.95483 17.3606 1.88013 17.1733 1.88013C16.986 1.88013 16.8063 1.95502 16.6743 2.08795L14.5972 4.18122C14.4597 4.31965 14.2771 4.396 14.0834 4.396C13.9358 4.396 10.4053 4.396 9.78662 4.396C9.59271 4.396 9.41034 4.31965 9.27155 4.18012L7.23083 2.13373C7.099 2.00134 6.91974 1.927 6.73297 1.927C6.73278 1.927 6.73242 1.927 6.73224 1.927C6.5451 1.92719 6.36584 2.00208 6.234 2.13483L0.157273 8.25642C-0.115371 8.53108 -0.114822 8.97438 0.158555 9.24849L1.90136 10.9946C2.2315 11.3273 2.41332 11.7699 2.41332 12.241C2.41332 12.8505 2.58434 13.4336 2.90221 13.9358C2.21044 14.777 2.25512 16.0298 3.03698 16.8173C3.41546 17.1988 3.91112 17.4192 4.44268 17.4452C4.46703 17.9594 4.67358 18.4662 5.06249 18.8579C5.44097 19.2393 5.93664 19.4597 6.46838 19.4857C6.49255 19.9999 6.69928 20.5067 7.08801 20.8984C7.70013 21.5151 8.57849 21.6706 9.32025 21.4041C9.42243 21.6993 9.59015 21.9762 9.82379 22.2115C10.6586 23.0526 12.0123 23.0528 12.8472 22.2115L13.144 21.9126C13.3295 21.7257 13.4733 21.5124 13.5758 21.2848C14.4062 22.0185 15.6861 22.0022 16.4953 21.187C16.8842 20.7953 17.0907 20.2885 17.1149 19.7743C17.6464 19.7485 18.1423 19.5279 18.5208 19.1465C18.9097 18.7548 19.1162 18.248 19.1406 17.7338C19.672 17.708 20.1678 17.4873 20.5463 17.1061C21.3238 16.323 21.3726 15.0795 20.693 14.2383C21.1883 13.5405 21.4565 12.7075 21.4565 11.8328C21.4565 11.6279 21.5387 11.4276 21.6821 11.2832L23.749 9.20015C24.0211 8.92604 24.0211 8.48365 23.749 8.20954L17.6723 2.08777ZM4.03509 14.7768L5.04785 13.7566C5.33221 13.47 5.79071 13.4698 6.07525 13.7566C6.36273 14.046 6.36273 14.517 6.07525 14.8063L5.06249 15.8267C4.77795 16.1133 4.31963 16.1133 4.03509 15.8267C3.74779 15.5373 3.74779 15.0663 4.03509 14.7768ZM6.0606 16.8173L8.08612 14.7768C8.37067 14.4903 8.82916 14.4901 9.11371 14.7768C9.401 15.0663 9.401 15.5373 9.11371 15.8267C8.39172 16.554 8.35327 16.5927 7.08801 17.8673C6.80346 18.1537 6.34515 18.1538 6.0606 17.8671C5.77331 17.5778 5.77331 17.1068 6.0606 16.8173ZM8.08612 19.9076C7.79883 19.6183 7.79883 19.1474 8.08612 18.8579L9.09888 17.8376C9.38342 17.5511 9.84192 17.5511 10.1265 17.8376C10.3918 18.1049 10.4116 18.5266 10.1867 18.8178C10.1248 18.8749 10.2169 18.783 9.11371 19.9076C8.82916 20.1944 8.37085 20.1946 8.08612 19.9076ZM12.1461 20.9218L11.8493 21.2207C11.5648 21.5074 11.1064 21.5074 10.8219 21.2207C10.5601 20.957 10.5375 20.543 10.7529 20.2526C11.1389 19.8624 11.12 19.8855 11.1872 19.8119C11.4743 19.5861 11.8843 19.6084 12.1461 19.8721C12.4334 20.1616 12.4332 20.6325 12.1461 20.9218ZM19.5484 16.1153C19.2638 16.4019 18.8053 16.4019 18.5208 16.1153L17.2114 14.7962C16.9378 14.5207 16.4925 14.519 16.2169 14.7926C15.9414 15.0661 15.9397 15.5113 16.2133 15.7868L17.5228 17.1059C17.8101 17.3954 17.8101 17.8664 17.5228 18.1557C17.2383 18.4424 16.7798 18.4424 16.4953 18.1557L15.1859 16.8366C14.9121 16.561 14.467 16.5594 14.1914 16.8329C13.9158 17.1065 13.9142 17.5518 14.1878 17.8274L15.4971 19.1465C15.7846 19.4359 15.7846 19.9069 15.4971 20.1962C15.2128 20.4829 14.7543 20.4829 14.4696 20.1962C13.0911 18.8189 13.1572 18.8491 13.0184 18.7652C12.6603 18.4569 12.2166 18.2782 11.7438 18.254C11.7184 17.7418 11.5118 17.2372 11.1246 16.8468C10.9259 16.6469 10.6948 16.4912 10.4434 16.3847C10.9202 15.5638 10.8098 14.4893 10.1116 13.7862C9.39606 13.0653 8.32562 12.978 7.52746 13.4455C7.42401 13.1984 7.27295 12.9668 7.07336 12.7659C6.2384 11.9248 4.88488 11.9248 4.04974 12.7659L3.93768 12.8789C3.8604 12.6782 3.81957 12.4627 3.81957 12.241C3.81957 11.3961 3.49273 10.6018 2.898 10.0025L1.6483 8.75044L6.73407 3.62696L8.27472 5.17182C8.61896 5.51862 9.06043 5.73194 9.53742 5.78724L6.39532 9.55757C6.14685 9.85603 6.18713 10.2993 6.48541 10.5478C7.20666 11.1489 8.1189 11.4333 9.05402 11.3483C9.98895 11.2634 10.8351 10.8194 11.437 10.097C11.6887 9.79487 12.1122 9.70387 12.4673 9.87526C13.1918 10.2254 13.9882 10.3532 14.7715 10.2532L19.5484 15.0654C19.8356 15.3549 19.8356 15.8258 19.5484 16.1153ZM20.6842 10.2924C20.2753 10.7042 20.0503 11.2513 20.0503 11.8328C20.0503 12.3236 19.923 12.7941 19.6853 13.2072L16.2655 9.76228C16.9646 9.37336 17.5379 8.78871 17.9182 8.06398C18.0985 7.7201 17.966 7.29511 17.6221 7.11476C17.2782 6.93421 16.8532 7.06678 16.6729 7.41065C16.2913 8.13795 15.6363 8.62336 14.9026 8.80317C14.8704 8.80812 14.8383 8.81508 14.807 8.8246C14.2432 8.94124 13.6388 8.87953 13.079 8.60908C12.1417 8.15626 11.0224 8.39796 10.3559 9.19777C9.99518 9.63045 9.48761 9.89686 8.92676 9.94795C8.60797 9.97688 8.29376 9.93422 8.00226 9.826L11.2573 5.91944C11.5124 5.84162 11.7768 5.79621 12.0434 5.79621H14.0834C14.6547 5.79621 15.1915 5.57831 15.5953 5.17182L17.1735 3.58136L22.2594 8.70485L20.6842 10.2924Z" fill="#AE9F91"/>
</g>
<defs>
<clipPath id="clip0_573_334">
<rect width="24" height="24" fill="white" transform="translate(0 0.333252)"/>
</clipPath>
</defs>
</svg>

<svg xmlns="http://www.w3.org/2000/svg" fill="none" viewBox="0 0 24 25"><g clip-path="url(#a)"><path fill="#ae9f91" d="M17.672 2.088a.703.703 0 0 0-.998 0l-2.077 2.093a.72.72 0 0 1-.514.215H9.787a.72.72 0 0 1-.515-.216L7.23 2.134a.703.703 0 0 0-.997.001L.157 8.256a.703.703 0 0 0 .002.992L1.9 10.995c.33.332.512.775.512 1.246 0 .61.171 1.193.49 1.695a2.16 2.16 0 0 0 .134 2.881 2.1 2.1 0 0 0 1.406.628 2.14 2.14 0 0 0 2.025 2.04c.025.515.231 1.022.62 1.413.612.617 1.49.773 2.232.506a2.133 2.133 0 0 0 3.527.808l.297-.3c.185-.186.33-.4.432-.627.83.733 2.11.717 2.92-.098.388-.392.595-.899.619-1.413a2.143 2.143 0 0 0 2.026-2.04 2.12 2.12 0 0 0 1.405-.628 2.16 2.16 0 0 0 .147-2.868c.495-.697.763-1.53.763-2.405a.8.8 0 0 1 .226-.55L23.75 9.2a.703.703 0 0 0 0-.99zM4.035 14.777l1.013-1.02a.72.72 0 0 1 1.027 0 .746.746 0 0 1 0 1.05l-1.013 1.02a.72.72 0 0 1-1.027 0 .747.747 0 0 1 0-1.05m2.026 2.04 2.025-2.04a.72.72 0 0 1 1.028 0c.287.29.287.76 0 1.05l-2.026 2.04a.72.72 0 0 1-1.027 0 .747.747 0 0 1 0-1.05m2.025 3.09a.747.747 0 0 1 0-1.05l1.013-1.02a.72.72 0 0 1 1.027 0 .75.75 0 0 1 .06.98c-.061.058.03-.034-1.072 1.09a.72.72 0 0 1-1.028 0m4.06 1.015-.297.299a.72.72 0 0 1-1.027 0 .75.75 0 0 1-.07-.968c.387-.39.368-.367.435-.441a.72.72 0 0 1 .96.06.75.75 0 0 1 0 1.05m7.402-4.807a.72.72 0 0 1-1.027 0l-1.31-1.319a.703.703 0 0 0-.998.99l1.31 1.32c.287.29.287.76 0 1.05a.72.72 0 0 1-1.028 0l-1.31-1.32a.703.703 0 0 0-.997.991l1.31 1.32a.75.75 0 0 1 0 1.05.72.72 0 0 1-1.028 0c-1.379-1.378-1.313-1.348-1.452-1.432a2.1 2.1 0 0 0-1.274-.511 2.14 2.14 0 0 0-1.3-1.87 2.16 2.16 0 0 0-.332-2.598 2.13 2.13 0 0 0-2.585-.34 2.127 2.127 0 0 0-3.478-.68l-.111.113a1.8 1.8 0 0 1-.118-.638c0-.845-.327-1.64-.922-2.238L1.648 8.75l5.086-5.123 1.54 1.545c.345.347.786.56 1.263.615l-3.142 3.77a.703.703 0 0 0 .09.99 3.5 3.5 0 0 0 2.569.801 3.5 3.5 0 0 0 2.383-1.251.855.855 0 0 1 1.03-.222 4.1 4.1 0 0 0 2.304.378l4.777 4.812c.288.29.288.76 0 1.05m1.136-5.823a2.17 2.17 0 0 0-.634 1.54c0 .492-.127.962-.365 1.375l-3.42-3.445a4.13 4.13 0 0 0 1.653-1.698.703.703 0 0 0-1.245-.653 2.73 2.73 0 0 1-1.866 1.414 2.7 2.7 0 0 1-1.728-.216 2.26 2.26 0 0 0-2.723.589c-.36.432-.868.699-1.43.75a2.1 2.1 0 0 1-.924-.122l3.255-3.907c.255-.077.52-.123.786-.123h2.04c.572 0 1.108-.218 1.512-.624l1.579-1.59 5.085 5.123z"/></g><defs><clipPath id="a"><path fill="#fff" d="M0 .333h24v24H0z"/></clipPath></defs></svg>
